X:1
T:Weaving Lilt
M:6/8
L:1/8
K:F
 F2 F c2 c|d-c A G2 F| F3/2- E/2 D C3/2 C/2 C| D2 E F2 F| F2 F c2 c|\
 d/2 c3/2 A G2 F| F/2 F3/2 c A2 c| F/2 F3/2 c A2 c| F3/2- E/2 D C2 C|\
 D/2 D3/2 E F2 F| F2 F c2 c|d-c A G2 F|

